X:373
T:Virginia
Z: id:dc-reel-345
M:C
L:1/8
K:D Major
DBBA B3A|BAdB AFEF|DFF2 A3B|AFBF AFEF|!
DBBA B3A|BAdB ABde|f3e defe|dBAF BEE2:|!
defe d3A|BAFA dBAB|defe defg|a2bf afeg|!
f2df efdB|AFF2 ABde|f3e defe|dBAF BEE2:|!

